X: 41723
T: Vals Efter Lasse I Lyby
R: waltz
M: 3/4
K: Aminor
|:e2 de c2|B2 G2 E2|C2 E2 G2|cB cd e2|
e2 de c2|B2 G2 E2|B,2 E2 GB|A2 z4:|
|:cB AB cd|e2 z2 (3ede|g2 e2 g2|e2 z4|
cB AB cd|e2 z2 (3ede|g2 e2 g2|a2 z4|
e2 de c2|B2 G2 E2|B,2 E2 GB|A2 z4:|

